X: 1
T: Colored Aristocracy
C: R-36
C: Old-Time
M: C|
Z: Transcribed to abc by Mary Lou Knack
R: reel
K: G
D2E2F2 |: "G"G3G- GED2| G6 A2| "Em"B2Bc BAG2| E6 z2|
          "C"e3f gfe2| "G"d4 B4 |1 "A7"A2B2c2^c2| "D7"d2=c2B2A2:|2 "D7"BABd- dBA2| "G"G6 |]
\
d2| "G" g3g- ged2| "Em"e6 d2| "C"e2ef e2d2| "Em"B6 z2|
    "C"e3f gfe2| "G"d4 B4| "A7"A2B2c2^c2| "D7"d2^d2e2f2 |
    "G" g3g- ged2| "Em"e6 z2| "C"d2df e2d2| "Em"B6 z2|
    "C"e3f gfe2| "G"d4 B4| "D7"BABd- dBA2| "G"G6 DE |]
%%text 9/1/98.  Also known as "Southern Aristocracy".
